modules/hawcons-stroke/icons/icon-71-thermometer-full.svg

<?xml version="1.0" encoding="UTF-8" standalone="no"?>
<svg width="32px" height="32px" viewBox="0 0 32 32" version="1.1" xmlns="http://www.w3.org/2000/svg" xmlns:xlink="http://www.w3.org/1999/xlink" xmlns:sketch="http://www.bohemiancoding.com/sketch/ns">
    <!-- Generator: Sketch 3.0.3 (7891) - http://www.bohemiancoding.com/sketch -->
    <title>icon 71 thermometer full</title>
    <desc>Created with Sketch.</desc>
    <defs></defs>
    <g id="Page-1" stroke="none" stroke-width="1" fill="none" fill-rule="evenodd" sketch:type="MSPage">
        <g id="icon-71-thermometer-full" sketch:type="MSArtboardGroup" fill="#929292">
            <path d="M16.9867916,23.1660721 C18.1588784,23.5741559 19,24.6888507 19,26 C19,27.6568543 17.6568543,29 16,29 C14.3431457,29 13,27.6568543 13,26 C13,24.6887673 13.8412286,23.5740141 15.0134321,23.1659942 C15.0045937,23.1124022 15,23.0573685 15,23.0012539 L15,3.99874609 C15,3.43861485 15.4477153,3 16,3 C16.5561352,3 17,3.44715386 17,3.99874609 L17,23.0012539 C17,23.0575269 16.9954812,23.1125735 16.9867916,23.1660721 L16.9867916,23.1660721 Z M18,22.5351287 C19.1956028,23.2267475 20,24.5194352 20,26 C20,28.2091391 18.2091391,30 16,30 C13.7908609,30 12,28.2091391 12,26 C12,24.5194352 12.8043972,23.2267475 14,22.5351287 L14,4.00359486 C14,2.88976324 14.8954305,2 16,2 C17.1122704,2 18,2.89703997 18,4.00359486 L18,22.5351287 L18,22.5351287 L18,22.5351287 Z M19,21.9996337 C20.2144467,22.91184 21,24.3641821 21,26 C21,28.7614239 18.7614239,31 16,31 C13.2385761,31 11,28.7614239 11,26 C11,24.3641821 11.7855533,22.91184 13,21.9996337 L13,3.99075223 C13,2.34410858 14.3431458,1 16,1 C17.6534829,1 19,2.33900538 19,3.99075223 L19,21.9996337 L19,21.9996337 L19,21.9996337 Z" id="thermometer-full" sketch:type="MSShapeGroup"></path>
        </g>
    </g>
</svg>

<svg width="32" height="32" xmlns="http://www.w3.org/2000/svg"><path d="M16.987 23.166A3.001 3.001 0 0 1 16 29a3 3 0 0 1-.987-5.834 1.012 1.012 0 0 1-.013-.165V4c0-.56.448-.999 1-.999.556 0 1 .447 1 .999V23c0 .057-.005.112-.013.165zm1.013-.63a4 4 0 1 1-4 0V4.003C14 2.89 14.895 2 16 2c1.112 0 2 .897 2 2.004v18.531zM19 22a5 5 0 1 1-6 0V3.99A2.999 2.999 0 0 1 16 1c1.653 0 3 1.339 3 2.99V22z" fill="#929292" fill-rule="evenodd"/></svg>
